static/assets/head_icons_png/man/bizi/1035267.svg

<svg xmlns="http://www.w3.org/2000/svg" width="8" height="10"><g transform="translate(3.7 4.7)"><radialGradient id="a" gradientUnits="userSpaceOnUse" gradientTransform="rotate(2.106 434.787 .182) scale(.01362)" spreadMethod="pad" cx="0" cy="0" r="819.2" fx="0" fy="0"><stop offset="0" stop-color="#fbbd9d"/><stop offset="1" stop-color="#fedec1"/></radialGradient><path d="M1.25 2.15Q.7 2.95.45 4l-.15.7H.15l-.35-.05-.25-.95-.6-1.3-.25-.3-.4-.55.2-.7v-.5l.05-.65-.05-1.15v-.4L-1.6-2l-1.1-1-1-.7v-.05q.4-.85 3-.95l3.6.4q.95.5.55.9l-.4.3-.95.8-.35.75v.35l.05.9.05.25v.4l.2.6.05.2-.85 1" fill="url(#a)"/><radialGradient id="b" gradientUnits="userSpaceOnUse" gradientTransform="rotate(6.577 -65.386 97.092) scale(.01003)" spreadMethod="pad" cx="0" cy="0" r="819.2" fx="0" fy="0"><stop offset="0" stop-color="#fbbd9d"/><stop offset="1" stop-color="#fedec1"/></radialGradient><path d="M2.1 1.15l.1.35.05.15.25.25.6 1.35-.1.5v.1l-.3.4-.6.05-.4.05-.25.05-.35.15-.45.1-.35.05.15-.7q.25-1.05.8-1.85l.85-1" fill="url(#b)"/><radialGradient id="c" gradientUnits="userSpaceOnUse" gradientTransform="rotate(6.537 -86.733 -94.515) scale(.01049)" spreadMethod="pad" cx="0" cy="0" r="819.2" fx="0" fy="0"><stop offset="0" stop-color="#fbbd9d"/><stop offset="1" stop-color="#fedec1"/></radialGradient><path d="M-.2 4.65l-.3-.1-.85-.25-.2-.05h-.05l.1.05-.25.05V4.3l-.3-.1-.35-.3-.05-.25.05-.65.1-.25.4-.85.2-.35.4.55.25.3.6 1.3.25.95" fill="url(#c)"/><path d="M-1.55 4.25h-.05l.25.05-.2-.05m-.15-.1q-.25-.25.25-.35.6-.2 1.1.6l-.5-.25h-.85m3.75-.35q.2.15 0 .35H1.5q-.4 0-.8.45.2-.55.55-.65l.4-.1.4-.05" fill="#630"/><radialGradient id="d" gradientUnits="userSpaceOnUse" gradientTransform="translate(5.6 -.45) scale(.00801)" spreadMethod="pad" cx="0" cy="0" r="819.2" fx="0" fy="0"><stop offset="0" stop-color="#f58b69"/><stop offset=".353" stop-color="#f8a989" stop-opacity=".627"/><stop offset="1" stop-color="#fcc8aa" stop-opacity=".259"/></radialGradient><path d="M1.8-.3l.05.25v.4l.2.6.15.55.05.15.25.25.6 1.35-.1.5q-.1-.25-.35-.25l.05-.25q-.05-.6-.4-.75l-.35-.2-.2.8-.25.35-.1-.95-.2-.45V1.1L1.05.35.95-.3l-.1-.45q.1-1.1.5-1.95l.3-.65.35-.1h1q.35-.05-.9 1.15l-.35.75v.35l.05.9" fill="url(#d)"/><radialGradient id="e" gradientUnits="userSpaceOnUse" gradientTransform="matrix(.0026 0 0 .0026 2.1 -.55)" spreadMethod="pad" cx="0" cy="0" r="819.2" fx="210473" fy="0"><stop offset=".337" stop-color="#f9c29f"/><stop offset="1" stop-color="#fedec1" stop-opacity="0"/></radialGradient><path d="M2.5 1.9l-.25-.25-.05-.15-.15-.55-.2-.6v-.4L1.8-.3l-.05-.9.7.9.25.35.35.3.4.25.15.1.15.1-.15.35-.15.2q-.35.45-.95.55" fill="url(#e)"/><radialGradient id="f" gradientUnits="userSpaceOnUse" gradientTransform="matrix(.01031 0 0 .00288 .45 4.4)" spreadMethod="pad" cx="0" cy="0" r="819.2" fx="0" fy="0"><stop offset="0" stop-color="#f58b69"/><stop offset=".353" stop-color="#f8a989" stop-opacity=".627"/><stop offset="1" stop-color="#fcc8aa" stop-opacity=".259"/></radialGradient><path d="M-2.4 3.9l.25-.2.55-.2.6.1q.35.1.6.3l.7.15L.6 4l.35-.15.1-.1.3-.1L2 3.5h.65q.25 0 .35.25v.1l-.3.4-.6.05-.4.05-.25.05-.35.15-.45.1-.5.05-.65-.15-.85-.25-.25-.05.1.05-.25.05V4.3l-.05-.15V4.1l-.15-.15-.1.25-.35-.3m5.05-.4v.05-.05m-3.5.65l.5.25q-.5-.8-1.1-.6-.5.1-.25.35h.85m3.35 0L2.4 4l-.05.25.15-.1m-.85-.3l-.4.1q-.35.1-.55.65.4-.45.8-.45h.55q.2-.2 0-.35l-.4.05" fill="url(#f)"/><radialGradient id="g" gradientUnits="userSpaceOnUse" gradientTransform="translate(.05 4.15) scale(.00418)" spreadMethod="pad" cx="0" cy="0" r="819.2" fx="0" fy="0"><stop offset="0" stop-color="#f39b61"/><stop offset="1" stop-color="#f8be98"/></radialGradient><path d="M2.35 4.25L2.4 4l.1.15-.15.1" fill="url(#g)"/><radialGradient id="h" gradientUnits="userSpaceOnUse" gradientTransform="matrix(.01022 0 0 .01022 -4.55 -2)" spreadMethod="pad" cx="0" cy="0" r="819.2" fx="0" fy="0"><stop offset="0" stop-color="#f58b69"/><stop offset=".353" stop-color="#f8a989" stop-opacity=".627"/><stop offset="1" stop-color="#fcc8aa" stop-opacity=".259"/></radialGradient><path d="M-2.4 3.9l-.05-.25.05-.65.1-.25.4-.85.4-1.05v-.5l.05-.65-.05-1.15v-.4L-1.6-2l-1.1-1q-2.05-.95.1-.95l1.3.65q.6 1.05.75 2.55v.45l-.1.65-.05.7v.1l.05.5-.45.8-.35.1V2.5l-.05-.3-.35.45-.35.75.05.3-.25.2" fill="url(#h)"/><radialGradient id="i" gradientUnits="userSpaceOnUse" gradientTransform="matrix(.003 0 0 .003 -1.7 -1.05)" spreadMethod="pad" cx="0" cy="0" r="819.2" fx="210473" fy="0"><stop offset=".337" stop-color="#f9c29f"/><stop offset="1" stop-color="#fedec1" stop-opacity="0"/></radialGradient><path d="M-2.3 2.5l-.4-1.15-.45-.8.3-.2.6-.65.1-.15.65-1 .05 1.15-.05.65v.5l-.4 1.05-.4.85V2.5" fill="url(#i)"/><radialGradient id="j" gradientUnits="userSpaceOnUse" gradientTransform="matrix(.0031 0 0 .0031 .3 3.7)" spreadMethod="pad" cx="0" cy="0" r="819.2" fx="0" fy="0"><stop offset="0" stop-color="#f39b61"/><stop offset="1" stop-color="#f8be98"/></radialGradient><path d="M-1.95 3.95l.15.15v.05l.05.15-.3-.1.1-.25" fill="url(#j)"/><radialGradient id="k" gradientUnits="userSpaceOnUse" gradientTransform="matrix(.00078 .00006 -.00003 .00266 .15 -.45)" spreadMethod="pad" cx="0" cy="0" r="819.2" fx="0" fy="0"><stop offset=".314" stop-color="#fff" stop-opacity=".431"/><stop offset="1" stop-color="#fff" stop-opacity="0"/></radialGradient><path d="M.55-1.9L.7-.4.55.95l-.05.2-.1.3-.2.3-.25-.3-.05-.05-.1-.35-.1-1.5L-.15-2l.35-.55.35.55v.1" fill="url(#k)"/><radialGradient id="l" gradientUnits="userSpaceOnUse" gradientTransform="matrix(.00072 .00006 -.00005 .00087 .3 2.8)" spreadMethod="pad" cx="0" cy="0" r="819.2" fx="0" fy="0"><stop offset=".314" stop-color="#fff" stop-opacity=".671"/><stop offset="1" stop-color="#fff" stop-opacity="0"/></radialGradient><path d="M.85 2.9l-.25.55-.4.2-.4-.3-.1-.1-.05-.4.05-.35.15-.1q.2-.25.4-.2l.45.2.15.5" fill="url(#l)"/><radialGradient id="m" gradientUnits="userSpaceOnUse" gradientTransform="matrix(.00589 0 0 .00589 -2.6 -2.7)" spreadMethod="pad" cx="0" cy="0" r="819.2" fx="210222" fy="0"><stop offset="0" stop-color="#d66d3e" stop-opacity=".812"/><stop offset="1" stop-color="#ffdec2" stop-opacity="0"/></radialGradient><path d="M-2.35-3.9l2.05.05 3-.15-.75.85L.9-2.3H-.5l-1.15-.2q-.25-1.05-.7-1.4" fill="url(#m)"/><radialGradient id="n" gradientUnits="userSpaceOnUse" gradientTransform="matrix(.0015 -.0026 .0052 .003 3.15 -1.35)" spreadMethod="pad" cx="0" cy="0" r="819.2" fx="0" fy="0"><stop offset="0" stop-color="#d66d3e" stop-opacity=".812"/><stop offset="1" stop-color="#ffdec2" stop-opacity="0"/></radialGradient><path d="M3.1-4.1l.55.6v.05q-1.95 1.1-1.95 2L1.95.7 1 0 .95-.2.8-1.8Q.8-3.75 3-4.05l.1-.05" fill="url(#n)"/></g></svg>

<?xml version="1.0" encoding="utf-8"?>
<svg version="1.1" id="Layer_1"
xmlns="http://www.w3.org/2000/svg"
xmlns:xlink="http://www.w3.org/1999/xlink"
xmlns:author="http://www.sothink.com"
width="8px" height="10px"
xml:space="preserve">
<g id="487" transform="matrix(1, 0, 0, 1, 3.7, 4.7)">
<radialGradient
id="RadialGradID_4174" gradientUnits="userSpaceOnUse" gradientTransform="matrix(0.0136108, 0.000473022, -0.000473022, 0.0136108, 0.3, -15.1)" spreadMethod ="pad" cx="0" cy="0" r="819.2" fx="0" fy="0" >
<stop  offset="0"  style="stop-color:#FBBD9D;stop-opacity:1" />
<stop  offset="1"  style="stop-color:#FEDEC1;stop-opacity:1" />
</radialGradient>
<path style="fill:url(#RadialGradID_4174) " d="M1.25,2.15Q0.7 2.95 0.45 4L0.3 4.7L0.15 4.7L-0.2 4.65L-0.45 3.7L-1.05 2.4L-1.3 2.1L-1.7 1.55L-1.5 0.85L-1.5 0.35L-1.45 -0.3L-1.5 -1.45L-1.5 -1.75L-1.5 -1.85L-1.6 -2L-2.7 -3L-3.7 -3.7L-3.7 -3.75Q-3.3 -4.6 -0.7 -4.7L2.9 -4.3Q3.85 -3.8 3.45 -3.4L3.05 -3.1L2.1 -2.3L1.75 -1.55L1.75 -1.2L1.8 -0.3L1.85 -0.05L1.85 0.35L2.05 0.95L2.1 1.15L1.25 2.15" />
<radialGradient
id="RadialGradID_4175" gradientUnits="userSpaceOnUse" gradientTransform="matrix(0.00996399, 0.00112915, -0.00112915, 0.00996399, 10.5, 8)" spreadMethod ="pad" cx="0" cy="0" r="819.2" fx="0" fy="0" >
<stop  offset="0"  style="stop-color:#FBBD9D;stop-opacity:1" />
<stop  offset="1"  style="stop-color:#FEDEC1;stop-opacity:1" />
</radialGradient>
<path style="fill:url(#RadialGradID_4175) " d="M2.1,1.15L2.2 1.5L2.25 1.65L2.5 1.9L3.1 3.25L3 3.75L3 3.85L2.7 4.25L2.1 4.3L1.7 4.35L1.45 4.4L1.1 4.55L0.65 4.65L0.3 4.7L0.45 4Q0.7 2.95 1.25 2.15L2.1 1.15" />
<radialGradient
id="RadialGradID_4176" gradientUnits="userSpaceOnUse" gradientTransform="matrix(0.0104218, 0.00117493, -0.00117493, 0.0104218, -11.15, 9.1)" spreadMethod ="pad" cx="0" cy="0" r="819.2" fx="0" fy="0" >
<stop  offset="0"  style="stop-color:#FBBD9D;stop-opacity:1" />
<stop  offset="1"  style="stop-color:#FEDEC1;stop-opacity:1" />
</radialGradient>
<path style="fill:url(#RadialGradID_4176) " d="M-0.2,4.65L-0.5 4.55L-1.35 4.3L-1.55 4.25L-1.6 4.25L-1.5 4.3L-1.75 4.35L-1.75 4.3L-2.05 4.2L-2.4 3.9L-2.45 3.65L-2.4 3L-2.3 2.75L-1.9 1.9L-1.7 1.55L-1.3 2.1L-1.05 2.4L-0.45 3.7L-0.2 4.65" />
<path style="fill:#663300;fill-opacity:1" d="M-1.55,4.25L-1.6 4.25L-1.35 4.3L-1.55 4.25M-1.7,4.15Q-1.95 3.9 -1.45 3.8Q-0.85 3.6 -0.35 4.4L-0.85 4.15L-1.7 4.15M2.05,3.8Q2.25 3.95 2.05 4.15L1.5 4.15Q1.1 4.15 0.7 4.6Q0.9 4.05 1.25 3.95L1.65 3.85L2.05 3.8" />
<radialGradient
id="RadialGradID_4177" gradientUnits="userSpaceOnUse" gradientTransform="matrix(0.00801086, 0, 0, 0.00801086, 5.6, -0.45)" spreadMethod ="pad" cx="0" cy="0" r="819.2" fx="0" fy="0" >
<stop  offset="0"  style="stop-color:#F58B69;stop-opacity:1" />
<stop  offset="0.352941"  style="stop-color:#F8A989;stop-opacity:0.627451" />
<stop  offset="1"  style="stop-color:#FCC8AA;stop-opacity:0.258824" />
</radialGradient>
<path style="fill:url(#RadialGradID_4177) " d="M1.8,-0.3L1.85 -0.05L1.85 0.35L2.05 0.95L2.2 1.5L2.25 1.65L2.5 1.9L3.1 3.25L3 3.75Q2.9 3.5 2.65 3.5L2.7 3.25Q2.65 2.65 2.3 2.5L1.95 2.3L1.75 3.1L1.5 3.45L1.4 2.5L1.2 2.05L1.2 1.1L1.05 0.35L0.95 -0.3L0.85 -0.75Q0.95 -1.85 1.35 -2.7L1.65 -3.35L2 -3.45L3 -3.45Q3.35 -3.5 2.1 -2.3L1.75 -1.55L1.75 -1.2L1.8 -0.3" />
<radialGradient
id="RadialGradID_4178" gradientUnits="userSpaceOnUse" gradientTransform="matrix(0.00260925, 0, 0, 0.00260925, 2.1, -0.55)" spreadMethod ="pad" cx="0" cy="0" r="819.2" fx="210473" fy="0" >
<stop  offset="0.337255"  style="stop-color:#F9C29F;stop-opacity:1" />
<stop  offset="1"  style="stop-color:#FEDEC1;stop-opacity:0" />
</radialGradient>
<path style="fill:url(#RadialGradID_4178) " d="M2.5,1.9L2.25 1.65L2.2 1.5L2.05 0.95L1.85 0.35L1.85 -0.05L1.8 -0.3L1.75 -1.2L2.45 -0.3L2.7 0.05L3.05 0.35L3.45 0.6L3.6 0.7L3.75 0.8L3.6 1.15L3.45 1.35Q3.1 1.8 2.5 1.9" />
<radialGradient
id="RadialGradID_4179" gradientUnits="userSpaceOnUse" gradientTransform="matrix(0.0103149, 0, 0, 0.00288391, 0.45, 4.4)" spreadMethod ="pad" cx="0" cy="0" r="819.2" fx="0" fy="0" >
<stop  offset="0"  style="stop-color:#F58B69;stop-opacity:1" />
<stop  offset="0.352941"  style="stop-color:#F8A989;stop-opacity:0.627451" />
<stop  offset="1"  style="stop-color:#FCC8AA;stop-opacity:0.258824" />
</radialGradient>
<path style="fill:url(#RadialGradID_4179) " d="M-2.4,3.9L-2.15 3.7L-1.6 3.5L-1 3.6Q-0.65 3.7 -0.4 3.9L0.3 4.05L0.6 4L0.95 3.85L1.05 3.75L1.35 3.65L2 3.5L2.65 3.5Q2.9 3.5 3 3.75L3 3.85L2.7 4.25L2.1 4.3L1.7 4.35L1.45 4.4L1.1 4.55L0.65 4.65L0.15 4.7L-0.5 4.55L-1.35 4.3L-1.6 4.25L-1.5 4.3L-1.75 4.35L-1.75 4.3L-1.8 4.15L-1.8 4.1L-1.95 3.95L-2.05 4.2L-2.4 3.9M2.65,3.5L2.65 3.55L2.65 3.5M-0.85,4.15L-0.35 4.4Q-0.85 3.6 -1.45 3.8Q-1.95 3.9 -1.7 4.15L-0.85 4.15M2.5,4.15L2.4 4L2.35 4.25L2.5 4.15M1.65,3.85L1.25 3.95Q0.9 4.05 0.7 4.6Q1.1 4.15 1.5 4.15L2.05 4.15Q2.25 3.95 2.05 3.8L1.65 3.85" />
<radialGradient
id="RadialGradID_4180" gradientUnits="userSpaceOnUse" gradientTransform="matrix(0.00418091, 0, 0, 0.00418091, 0.05, 4.15)" spreadMethod ="pad" cx="0" cy="0" r="819.2" fx="0" fy="0" >
<stop  offset="0"  style="stop-color:#F39B61;stop-opacity:1" />
<stop  offset="1"  style="stop-color:#F8BE98;stop-opacity:1" />
</radialGradient>
<path style="fill:url(#RadialGradID_4180) " d="M2.35,4.25L2.4 4L2.5 4.15L2.35 4.25" />
<radialGradient
id="RadialGradID_4181" gradientUnits="userSpaceOnUse" gradientTransform="matrix(0.0102234, 0, 0, 0.0102234, -4.55, -2)" spreadMethod ="pad" cx="0" cy="0" r="819.2" fx="0" fy="0" >
<stop  offset="0"  style="stop-color:#F58B69;stop-opacity:1" />
<stop  offset="0.352941"  style="stop-color:#F8A989;stop-opacity:0.627451" />
<stop  offset="1"  style="stop-color:#FCC8AA;stop-opacity:0.258824" />
</radialGradient>
<path style="fill:url(#RadialGradID_4181) " d="M-2.4,3.9L-2.45 3.65L-2.4 3L-2.3 2.75L-1.9 1.9L-1.5 0.85L-1.5 0.35L-1.45 -0.3L-1.5 -1.45L-1.5 -1.75L-1.5 -1.85L-1.6 -2L-2.7 -3Q-4.75 -3.95 -2.6 -3.95L-1.3 -3.3Q-0.7 -2.25 -0.55 -0.75L-0.55 -0.3L-0.65 0.35L-0.7 1.05L-0.7 1.15L-0.65 1.65L-1.1 2.45L-1.45 2.55L-1.45 2.5L-1.5 2.2L-1.85 2.65L-2.2 3.4L-2.15 3.7L-2.4 3.9" />
<radialGradient
id="RadialGradID_4182" gradientUnits="userSpaceOnUse" gradientTransform="matrix(0.00300598, 0, 0, 0.00300598, -1.7, -1.05)" spreadMethod ="pad" cx="0" cy="0" r="819.2" fx="210473" fy="0" >
<stop  offset="0.337255"  style="stop-color:#F9C29F;stop-opacity:1" />
<stop  offset="1"  style="stop-color:#FEDEC1;stop-opacity:0" />
</radialGradient>
<path style="fill:url(#RadialGradID_4182) " d="M-2.3,2.5L-2.7 1.35L-3.15 0.55L-2.85 0.35L-2.25 -0.3L-2.15 -0.45L-1.5 -1.45L-1.45 -0.3L-1.5 0.35L-1.5 0.85L-1.9 1.9L-2.3 2.75L-2.3 2.5" />
<radialGradient
id="RadialGradID_4183" gradientUnits="userSpaceOnUse" gradientTransform="matrix(0.00309753, 0, 0, 0.00309753, 0.3, 3.7)" spreadMethod ="pad" cx="0" cy="0" r="819.2" fx="0" fy="0" >
<stop  offset="0"  style="stop-color:#F39B61;stop-opacity:1" />
<stop  offset="1"  style="stop-color:#F8BE98;stop-opacity:1" />
</radialGradient>
<path style="fill:url(#RadialGradID_4183) " d="M-1.95,3.95L-1.8 4.1L-1.8 4.15L-1.75 4.3L-2.05 4.2L-1.95 3.95" />
<radialGradient
id="RadialGradID_4184" gradientUnits="userSpaceOnUse" gradientTransform="matrix(0.000778198, 6.10352e-005, -3.05176e-005, 0.00265503, 0.15, -0.45)" spreadMethod ="pad" cx="0" cy="0" r="819.2" fx="0" fy="0" >
<stop  offset="0.313725"  style="stop-color:#FFFFFF;stop-opacity:0.431373" />
<stop  offset="1"  style="stop-color:#FFFFFF;stop-opacity:0" />
</radialGradient>
<path style="fill:url(#RadialGradID_4184) " d="M0.55,-1.9L0.7 -0.4L0.55 0.95L0.5 1.15L0.4 1.45L0.2 1.75L-0.05 1.45L-0.1 1.4L-0.2 1.05L-0.3 -0.45L-0.15 -2L0.2 -2.55L0.55 -2L0.55 -1.9" />
<radialGradient
id="RadialGradID_4185" gradientUnits="userSpaceOnUse" gradientTransform="matrix(0.000717163, 6.10352e-005, -4.57764e-005, 0.000869751, 0.3, 2.8)" spreadMethod ="pad" cx="0" cy="0" r="819.2" fx="0" fy="0" >
<stop  offset="0.313725"  style="stop-color:#FFFFFF;stop-opacity:0.670588" />
<stop  offset="1"  style="stop-color:#FFFFFF;stop-opacity:0" />
</radialGradient>
<path style="fill:url(#RadialGradID_4185) " d="M0.85,2.9L0.6 3.45L0.2 3.65L-0.2 3.35L-0.3 3.25L-0.35 2.85L-0.3 2.5L-0.15 2.4Q0.05 2.15 0.25 2.2L0.7 2.4L0.85 2.9" />
<radialGradient
id="RadialGradID_4186" gradientUnits="userSpaceOnUse" gradientTransform="matrix(0.00588989, 0, 0, 0.00588989, -2.6, -2.7)" spreadMethod ="pad" cx="0" cy="0" r="819.2" fx="210222" fy="0" >
<stop  offset="0"  style="stop-color:#D66D3E;stop-opacity:0.811765" />
<stop  offset="1"  style="stop-color:#FFDEC2;stop-opacity:0" />
</radialGradient>
<path style="fill:url(#RadialGradID_4186) " d="M-2.35,-3.9L-0.3 -3.85L2.7 -4L1.95 -3.15L0.9 -2.3L-0.5 -2.3L-1.65 -2.5Q-1.9 -3.55 -2.35 -3.9" />
<radialGradient
id="RadialGradID_4187" gradientUnits="userSpaceOnUse" gradientTransform="matrix(0.00149536, -0.00259399, 0.00520325, 0.00300598, 3.15, -1.35)" spreadMethod ="pad" cx="0" cy="0" r="819.2" fx="0" fy="0" >
<stop  offset="0"  style="stop-color:#D66D3E;stop-opacity:0.811765" />
<stop  offset="1"  style="stop-color:#FFDEC2;stop-opacity:0" />
</radialGradient>
<path style="fill:url(#RadialGradID_4187) " d="M3.1,-4.1L3.65 -3.5L3.65 -3.45Q1.7 -2.35 1.7 -1.45L1.95 0.7L1 0L0.95 -0.2L0.8 -1.8Q0.8 -3.75 3 -4.05L3.1 -4.1" />
</g>
</svg>
